bicons/scalable/emblems/v-card.svg

<?xml version="1.0" encoding="UTF-8" standalone="no"?>
<!-- Created with Inkscape (http://www.inkscape.org/) -->
<svg xmlns:dc="http://purl.org/dc/elements/1.1/" xmlns:cc="http://creativecommons.org/ns#" xmlns:rdf="http://www.w3.org/1999/02/22-rdf-syntax-ns#" xmlns:svg="http://www.w3.org/2000/svg" xmlns="http://www.w3.org/2000/svg" xmlns:xlink="http://www.w3.org/1999/xlink" xmlns:sodipodi="http://sodipodi.sourceforge.net/DTD/sodipodi-0.dtd" xmlns:inkscape="http://www.inkscape.org/namespaces/inkscape" width="210mm" height="297mm" viewBox="0 0 744.09448819 1052.3622047" id="svg2" version="1.1" inkscape:version="0.91 r13725" inkscape:export-xdpi="4" inkscape:export-ydpi="4">
  <defs id="defs4">
    <linearGradient inkscape:collect="always" id="linearGradient4200">
      <stop style="stop-color:#9397a2;stop-opacity:1;" offset="0" id="stop4202"/>
      <stop style="stop-color:#5a6578;stop-opacity:1" offset="1" id="stop4204"/>
    </linearGradient>
    <linearGradient id="linearGradient2224">
      <stop id="stop2226" offset="0" style="stop-color:#7c7c7c;stop-opacity:1;"/>
      <stop id="stop2228" offset="1" style="stop-color:#b8b8b8;stop-opacity:1;"/>
    </linearGradient>
    <linearGradient id="linearGradient15218">
      <stop id="stop15220" offset="0" style="stop-color:#eeeeef;stop-opacity:1;"/>
      <stop id="stop2736" offset="0.59928656" style="stop-color:#d3d7cf;stop-opacity:1;"/>
      <stop id="stop2738" offset="0.82758623" style="stop-color:#ffffff;stop-opacity:1;"/>
      <stop id="stop15222" offset="1" style="stop-color:#d3d7cf;stop-opacity:1;"/>
    </linearGradient>
    <pattern y="0" x="0" height="6" width="6" patternUnits="userSpaceOnUse" id="EMFhbasepattern"/>
    <pattern y="0" x="0" height="6" width="6" patternUnits="userSpaceOnUse" id="EMFhbasepattern-5"/>
    <linearGradient inkscape:collect="always" xlink:href="#linearGradient4200" id="linearGradient4206" x1="580" y1="422.36221" x2="230" y2="642.36218" gradientUnits="userSpaceOnUse"/>
  </defs>
  <sodipodi:namedview id="base" pagecolor="#ffffff" bordercolor="#666666" borderopacity="1.0" inkscape:pageopacity="0.0" inkscape:pageshadow="2" inkscape:zoom="1" inkscape:cx="298.03918" inkscape:cy="596.8941" inkscape:document-units="px" inkscape:current-layer="layer1" showgrid="false" showguides="true" inkscape:guide-bbox="true" inkscape:window-width="1366" inkscape:window-height="721" inkscape:window-x="-4" inkscape:window-y="-4" inkscape:window-maximized="1">
    <sodipodi:guide position="560,730.00002" orientation="0,1" id="guide3338"/>
    <sodipodi:guide position="560,330.00001" orientation="0,1" id="guide3340"/>
    <sodipodi:guide position="190,475.00001" orientation="1,0" id="guide3344"/>
    <sodipodi:guide position="590,451.00001" orientation="1,0" id="guide3346"/>
    <inkscape:grid type="xygrid" id="grid3440"/>
  </sodipodi:namedview>
  <metadata id="metadata7">
    <rdf:RDF>
      <cc:Work rdf:about="">
        <dc:format>image/svg+xml</dc:format>
        <dc:type rdf:resource="http://purl.org/dc/dcmitype/StillImage"/>
      </cc:Work>
    </rdf:RDF>
  </metadata>
  <g inkscape:label="Ebene 1" inkscape:groupmode="layer" id="layer1">
    <rect style="opacity:1;fill:none;fill-opacity:1;stroke:none;stroke-width:23;stroke-linecap:butt;stroke-linejoin:round;stroke-miterlimit:4;stroke-dasharray:none;stroke-opacity:1" id="rect4160" width="400" height="400" x="190" y="322.36221"/>
    <g id="g4158" transform="matrix(0.875,0,0,0.875,47.794193,59.487221)">
      <rect ry="29.999992" y="401.89777" x="190.35355" height="250" width="400" id="rect4149" style="color:#000000;clip-rule:nonzero;display:inline;overflow:visible;visibility:visible;opacity:1;isolation:auto;mix-blend-mode:normal;color-interpolation:sRGB;color-interpolation-filters:linearRGB;solid-color:#000000;solid-opacity:1;fill:url(#linearGradient4206);fill-opacity:1;fill-rule:nonzero;stroke:none;stroke-width:25;stroke-linecap:butt;stroke-linejoin:round;stroke-miterlimit:4;stroke-dasharray:none;stroke-dashoffset:0;stroke-opacity:1;color-rendering:auto;image-rendering:auto;shape-rendering:auto;text-rendering:auto;enable-background:accumulate"/>
      <path id="path2176" d="m 260.29492,505.11719 -1.52734,0.82812 c -21.7541,12.88692 -37.08985,43.97207 -37.08985,80.27149 0,7.79664 0.71023,15.35026 2.03711,22.53711 1.96814,4.40294 6.91461,7.62928 12.83985,8.05078 l 0,0.0488 88.06445,0 0,-0.004 c 6.65048,-0.0939 12.2528,-3.7128 14.13477,-8.67383 1.2593,-7.01379 1.93164,-14.37051 1.93164,-21.95898 0,-36.74886 -15.72063,-68.14884 -37.9043,-80.73633 -6.12386,3.71692 -13.30247,5.86133 -20.95898,5.86133 -7.89699,0 -15.27983,-2.28964 -21.52735,-6.22461 z" style="fill:#ffffff;fill-opacity:1;stroke:none;stroke-width:41.15159225;stroke-linecap:round;stroke-linejoin:round;stroke-opacity:1" inkscape:connector-curvature="0"/>
      <ellipse ry="33.283401" rx="33.463921" cx="282.82217" cy="472.05872" id="circle2187-6" style="fill:#ffffff;fill-opacity:1;stroke:none;stroke-width:14;stroke-miterlimit:4;stroke-dasharray:none;stroke-opacity:1"/>
      <text sodipodi:linespacing="125%" id="text4176" y="580.80963" x="362.58899" style="font-style:normal;font-weight:normal;font-size:203.36109924px;line-height:125%;font-family:sans-serif;letter-spacing:0px;word-spacing:0px;fill:#000000;fill-opacity:1;stroke:none;stroke-width:1px;stroke-linecap:butt;stroke-linejoin:miter;stroke-opacity:1" xml:space="preserve"><tspan style="font-style:normal;font-variant:normal;font-weight:bold;font-stretch:normal;font-family:sans-serif;-inkscape-font-specification:'sans-serif Bold';fill:#ffffff" y="580.80963" x="362.58899" id="tspan4178" sodipodi:role="line">@</tspan></text>
    </g>
  </g>
</svg>

<?xml version="1.0" encoding="UTF-8" standalone="no"?>
<!-- Created with Inkscape (http://www.inkscape.org/) -->

<svg
   xmlns:dc="http://purl.org/dc/elements/1.1/"
   xmlns:cc="http://creativecommons.org/ns#"
   xmlns:rdf="http://www.w3.org/1999/02/22-rdf-syntax-ns#"
   xmlns:svg="http://www.w3.org/2000/svg"
   xmlns="http://www.w3.org/2000/svg"
   xmlns:xlink="http://www.w3.org/1999/xlink"
   xmlns:sodipodi="http://sodipodi.sourceforge.net/DTD/sodipodi-0.dtd"
   xmlns:inkscape="http://www.inkscape.org/namespaces/inkscape"
   width="210mm"
   height="297mm"
   viewBox="0 0 744.09448819 1052.3622047"
   id="svg2"
   version="1.1"
   inkscape:version="0.91 r13725"
   sodipodi:docname="v-card.svg"
   inkscape:export-filename="C:\Users\johannes\Documents\Arbeit\RRZE\bi-con\bi-con\scalable\documents\document.png"
   inkscape:export-xdpi="4"
   inkscape:export-ydpi="4">
  <defs
     id="defs4">
    <linearGradient
       inkscape:collect="always"
       id="linearGradient4200">
      <stop
         style="stop-color:#9397a2;stop-opacity:1;"
         offset="0"
         id="stop4202" />
      <stop
         style="stop-color:#5a6578;stop-opacity:1"
         offset="1"
         id="stop4204" />
    </linearGradient>
    <linearGradient
       id="linearGradient2224">
      <stop
         id="stop2226"
         offset="0"
         style="stop-color:#7c7c7c;stop-opacity:1;" />
      <stop
         id="stop2228"
         offset="1"
         style="stop-color:#b8b8b8;stop-opacity:1;" />
    </linearGradient>
    <linearGradient
       id="linearGradient15218">
      <stop
         id="stop15220"
         offset="0"
         style="stop-color:#eeeeef;stop-opacity:1;" />
      <stop
         id="stop2736"
         offset="0.59928656"
         style="stop-color:#d3d7cf;stop-opacity:1;" />
      <stop
         id="stop2738"
         offset="0.82758623"
         style="stop-color:#ffffff;stop-opacity:1;" />
      <stop
         id="stop15222"
         offset="1"
         style="stop-color:#d3d7cf;stop-opacity:1;" />
    </linearGradient>
    <pattern
       y="0"
       x="0"
       height="6"
       width="6"
       patternUnits="userSpaceOnUse"
       id="EMFhbasepattern" />
    <pattern
       y="0"
       x="0"
       height="6"
       width="6"
       patternUnits="userSpaceOnUse"
       id="EMFhbasepattern-5" />
    <linearGradient
       inkscape:collect="always"
       xlink:href="#linearGradient4200"
       id="linearGradient4206"
       x1="580"
       y1="422.36221"
       x2="230"
       y2="642.36218"
       gradientUnits="userSpaceOnUse" />
  </defs>
  <sodipodi:namedview
     id="base"
     pagecolor="#ffffff"
     bordercolor="#666666"
     borderopacity="1.0"
     inkscape:pageopacity="0.0"
     inkscape:pageshadow="2"
     inkscape:zoom="0.5"
     inkscape:cx="280.8202"
     inkscape:cy="650.45775"
     inkscape:document-units="px"
     inkscape:current-layer="layer1"
     showgrid="false"
     showguides="false"
     inkscape:guide-bbox="true"
     inkscape:window-width="1366"
     inkscape:window-height="721"
     inkscape:window-x="-4"
     inkscape:window-y="-4"
     inkscape:window-maximized="1">
    <sodipodi:guide
       position="560,730.00002"
       orientation="0,1"
       id="guide3338" />
    <sodipodi:guide
       position="560,330.00001"
       orientation="0,1"
       id="guide3340" />
    <sodipodi:guide
       position="190,475.00001"
       orientation="1,0"
       id="guide3344" />
    <sodipodi:guide
       position="590,451.00001"
       orientation="1,0"
       id="guide3346" />
    <inkscape:grid
       type="xygrid"
       id="grid3440" />
  </sodipodi:namedview>
  <metadata
     id="metadata7">
    <rdf:RDF>
      <cc:Work
         rdf:about="">
        <dc:format>image/svg+xml</dc:format>
        <dc:type
           rdf:resource="http://purl.org/dc/dcmitype/StillImage" />
      </cc:Work>
    </rdf:RDF>
  </metadata>
  <g
     inkscape:label="Ebene 1"
     inkscape:groupmode="layer"
     id="layer1">
    <rect
       style="opacity:1;fill:none;fill-opacity:1;stroke:none;stroke-width:23;stroke-linecap:butt;stroke-linejoin:round;stroke-miterlimit:4;stroke-dasharray:none;stroke-opacity:1"
       id="rect4160"
       width="400"
       height="400"
       x="190"
       y="322.36221" />
    <rect
       style="color:#000000;clip-rule:nonzero;display:inline;overflow:visible;visibility:visible;opacity:1;isolation:auto;mix-blend-mode:normal;color-interpolation:sRGB;color-interpolation-filters:linearRGB;solid-color:#000000;solid-opacity:1;fill:url(#linearGradient4206);fill-opacity:1;fill-rule:nonzero;stroke:none;stroke-width:25;stroke-linecap:butt;stroke-linejoin:round;stroke-miterlimit:4;stroke-dasharray:none;stroke-dashoffset:0;stroke-opacity:1;color-rendering:auto;image-rendering:auto;shape-rendering:auto;text-rendering:auto;enable-background:accumulate"
       id="rect4149"
       width="400"
       height="250"
       x="190.35355"
       y="401.89777"
       ry="29.999992" />
    <path
       style="fill:#ffffff;fill-opacity:1;stroke:none;stroke-width:41.15159225;stroke-linecap:round;stroke-linejoin:round;stroke-opacity:1"
       d="M 260.29492 505.11719 L 258.76758 505.94531 C 237.01348 518.83223 221.67773 549.91738 221.67773 586.2168 C 221.67773 594.01344 222.38796 601.56706 223.71484 608.75391 C 225.68298 613.15685 230.62945 616.38319 236.55469 616.80469 L 236.55469 616.85352 L 324.61914 616.85352 L 324.61914 616.84961 C 331.26962 616.75571 336.87194 613.13681 338.75391 608.17578 C 340.01321 601.16199 340.68555 593.80527 340.68555 586.2168 C 340.68555 549.46794 324.96492 518.06796 302.78125 505.48047 C 296.65739 509.19739 289.47878 511.3418 281.82227 511.3418 C 273.92528 511.3418 266.54244 509.05216 260.29492 505.11719 z "
       id="path2176" />
    <ellipse
       style="fill:#ffffff;fill-opacity:1;stroke:none;stroke-width:14;stroke-miterlimit:4;stroke-dasharray:none;stroke-opacity:1"
       id="circle2187-6"
       cy="471.05872"
       cx="281.82217"
       rx="33.463921"
       ry="33.283401" />
    <text
       xml:space="preserve"
       style="font-style:normal;font-weight:normal;font-size:203.36109924px;line-height:125%;font-family:sans-serif;letter-spacing:0px;word-spacing:0px;fill:#000000;fill-opacity:1;stroke:none;stroke-width:1px;stroke-linecap:butt;stroke-linejoin:miter;stroke-opacity:1"
       x="362.58899"
       y="580.80963"
       id="text4176"
       sodipodi:linespacing="125%"><tspan
         sodipodi:role="line"
         id="tspan4178"
         x="362.58899"
         y="580.80963"
         style="font-style:normal;font-variant:normal;font-weight:bold;font-stretch:normal;font-family:sans-serif;-inkscape-font-specification:'sans-serif Bold';fill:#ffffff">@</tspan></text>
  </g>
</svg>
